images/ICONOS/EXPERIENCIA/DESARROLLO MOB ICON.svg

<svg width="42" height="50" viewBox="0 0 42 50" fill="none" xmlns="http://www.w3.org/2000/svg">
<path d="M29.3464 46.3807C28.9744 47.1138 28.7831 48.0372 28.2011 48.5053C27.3694 49.1715 26.2587 49.8994 25.2543 49.9174C18.1276 50.0358 11.0009 50.0049 3.87163 49.9663C1.62097 49.9534 0.0160058 48.3793 0.0133485 46.2161C-0.005252 32.0719 -0.005252 17.9302 0.018663 3.78852C0.0213202 1.62534 1.61299 0.0511873 3.87429 0.0357544C11.0009 -0.0105443 18.1303 -0.0105443 25.2569 0.028038C27.497 0.0408987 29.0541 1.65364 29.171 3.92484C29.2268 4.99486 29.1657 6.06744 29.1896 7.13746C29.2109 8.15346 28.9983 9.11544 30.0984 9.98483C30.6325 10.4067 30.4571 11.7365 30.497 12.6599C30.5421 13.7067 30.7441 14.8539 29.4075 15.4275C29.2746 15.4841 29.1976 15.7979 29.1976 15.9908C29.1843 18.8922 29.1896 21.7936 29.1896 24.6821C37.791 25.3688 42.0957 29.1936 42.0001 35.9455C41.9124 42.1161 37.2171 45.9769 29.3464 46.3807ZM1.74054 8.50841C1.66614 8.76563 1.62097 8.84536 1.62097 8.9251C1.61299 21.2714 1.60237 33.6152 1.61299 45.9615C1.61565 47.5073 2.59351 48.4076 4.21707 48.4102C11.1258 48.423 18.0346 48.4359 24.9407 48.3844C25.5785 48.3793 26.3358 48.0603 26.822 47.6462C27.7919 46.8231 27.5049 46.0772 26.4208 45.4213C25.0125 44.5699 23.4899 43.7211 22.4296 42.5251C17.4872 36.959 19.52 28.7384 26.4527 25.6441C26.8699 25.4589 27.3986 24.9161 27.404 24.5355C27.4598 17.6344 27.4544 10.7333 27.4279 3.83225C27.4226 2.51531 26.5271 1.60477 25.1958 1.59962C18.1143 1.56876 11.0302 1.57133 3.94338 1.59705C2.69182 1.60219 1.73523 2.47415 1.63425 3.66506C1.54922 4.67591 1.61565 5.69963 1.61565 6.86224C2.25338 6.86224 2.7742 6.86224 3.29236 6.86224C9.57934 6.86224 15.869 6.84938 22.156 6.88024C22.8973 6.88281 24.1303 6.47127 24.117 7.71876C24.1037 8.8325 22.9451 8.49041 22.2171 8.49812C19.2516 8.52899 16.2835 8.51098 13.3154 8.51098C9.47571 8.50841 5.62805 8.50841 1.74054 8.50841ZM21.4226 35.5597C21.4199 40.6165 25.6077 44.7294 30.8185 44.7886C35.9921 44.8477 40.4004 40.614 40.4057 35.5751C40.4137 30.5234 36.0346 26.3103 30.8344 26.3668C25.5997 26.4234 21.4252 30.5003 21.4226 35.5597Z" fill="url(#paint0_linear_1_1975)"/>
<path d="M12.1542 44.2816C12.1516 42.602 13.5838 41.2156 15.2765 41.2594C16.9 41.3005 18.3137 42.6946 18.3216 44.2636C18.3296 45.8892 16.8389 47.3168 15.1649 47.2808C13.4961 47.2448 12.1569 45.9098 12.1542 44.2816ZM14.9496 42.7203C14.5723 43.2322 13.9771 43.7055 13.8681 44.2636C13.7087 45.097 14.3571 45.7323 15.21 45.5549C15.7415 45.4443 16.4244 44.8449 16.5519 44.3459C16.7539 43.5589 16.1773 43.0033 14.9496 42.7203Z" fill="url(#paint1_linear_1_1975)"/>
<path d="M21.2127 4.46735C20.7291 4.77858 20.1843 5.39333 19.7751 5.31873C19.3234 5.23642 18.7362 4.54709 18.691 4.07896C18.6591 3.73429 19.4005 3.0218 19.8044 3.01666C20.272 3.01152 20.7477 3.60054 21.2207 3.93235C21.218 4.10982 21.2153 4.2873 21.2127 4.46735Z" fill="url(#paint2_linear_1_1975)"/>
<path d="M36.5236 35.5646C35.5378 34.5461 34.5891 33.651 33.7627 32.6632C33.5076 32.3597 33.582 31.7964 33.505 31.354C33.9673 31.4158 34.5838 31.318 34.8628 31.5701C35.9895 32.5861 37.0072 33.7178 38.0807 34.7904C38.6068 35.3177 38.6361 35.7961 38.094 36.3363C37.0178 37.4089 36.0081 38.5432 34.8814 39.5617C34.5998 39.8164 33.9886 39.7289 33.5289 39.7958C33.5927 39.356 33.5023 38.7927 33.7494 38.4943C34.5758 37.504 35.5245 36.6038 36.5236 35.5646Z" fill="url(#paint3_linear_1_1975)"/>
<path d="M25.2251 35.5621C26.1976 36.5549 27.1303 37.4089 27.9248 38.3708C28.2065 38.7129 28.1507 39.3148 28.249 39.7984C27.7627 39.6955 27.133 39.7418 26.8115 39.4614C25.7698 38.5406 24.8611 37.4809 23.8619 36.5163C23.2056 35.881 23.1259 35.3383 23.8247 34.6695C24.7973 33.7384 25.6582 32.6941 26.668 31.8042C27.0347 31.4826 27.9328 31.1791 28.1666 31.3669C28.8921 31.9379 28.2517 32.4806 27.7973 32.9462C26.9815 33.7796 26.1604 34.6104 25.2251 35.5621Z" fill="url(#paint4_linear_1_1975)"/>
<path d="M29.1285 39.1476C29.7902 36.5446 30.3748 34.1422 31.0471 31.763C31.1188 31.5084 31.7034 31.39 32.0515 31.2074C32.2295 31.5495 32.6175 31.9379 32.551 32.2286C32.0169 34.5975 31.4217 36.9562 30.7681 39.2968C30.691 39.572 30.1223 39.909 29.8168 39.8807C29.5404 39.8524 29.3146 39.3611 29.1285 39.1476Z" fill="url(#paint5_linear_1_1975)"/>
<defs>
<linearGradient id="paint0_linear_1_1975" x1="0" y1="50.0021" x2="42.0016" y2="50.0021" gradientUnits="userSpaceOnUse">
<stop stop-color="#1723FF"/>
<stop offset="1" stop-color="#30E35E"/>
</linearGradient>
<linearGradient id="paint1_linear_1_1975" x1="0" y1="50.0021" x2="42.0016" y2="50.0021" gradientUnits="userSpaceOnUse">
<stop stop-color="#1723FF"/>
<stop offset="1" stop-color="#30E35E"/>
</linearGradient>
<linearGradient id="paint2_linear_1_1975" x1="0" y1="50.0021" x2="42.0016" y2="50.0021" gradientUnits="userSpaceOnUse">
<stop stop-color="#1723FF"/>
<stop offset="1" stop-color="#30E35E"/>
</linearGradient>
<linearGradient id="paint3_linear_1_1975" x1="0" y1="50.0021" x2="42.0016" y2="50.0021" gradientUnits="userSpaceOnUse">
<stop stop-color="#1723FF"/>
<stop offset="1" stop-color="#30E35E"/>
</linearGradient>
<linearGradient id="paint4_linear_1_1975" x1="0" y1="50.0021" x2="42.0016" y2="50.0021" gradientUnits="userSpaceOnUse">
<stop stop-color="#1723FF"/>
<stop offset="1" stop-color="#30E35E"/>
</linearGradient>
<linearGradient id="paint5_linear_1_1975" x1="0" y1="50.0021" x2="42.0016" y2="50.0021" gradientUnits="userSpaceOnUse">
<stop stop-color="#1723FF"/>
<stop offset="1" stop-color="#30E35E"/>
</linearGradient>
</defs>
</svg>

<svg xmlns="http://www.w3.org/2000/svg" width="42" height="50" fill="none"><path fill="url(#a)" d="M29.346 46.38c-.372.734-.563 1.657-1.145 2.125-.832.666-1.942 1.394-2.947 1.412-7.126.119-14.253.088-21.382.05-2.251-.014-3.856-1.588-3.859-3.75C-.005 32.071-.005 17.93.02 3.788.02 1.625 1.613.05 3.874.036 11.001-.011 18.13-.011 25.257.028c2.24.013 3.797 1.626 3.914 3.897.056 1.07-.005 2.142.019 3.212.02 1.016-.192 1.978.908 2.848.535.422.36 1.752.399 2.675.045 1.047.247 2.194-1.09 2.768-.132.056-.21.37-.21.563-.013 2.901-.007 5.803-.007 8.691 8.601.687 12.906 4.512 12.81 11.264-.088 6.17-4.783 10.03-12.654 10.435ZM1.741 8.509c-.075.258-.12.337-.12.417-.008 12.346-.019 24.69-.008 37.037.003 1.545.98 2.446 2.604 2.448 6.909.013 13.818.026 20.724-.026.637-.005 1.395-.324 1.881-.738.97-.823.683-1.569-.401-2.225-1.409-.851-2.931-1.7-3.991-2.896-4.943-5.566-2.91-13.787 4.023-16.88.417-.186.946-.729.951-1.11.056-6.9.05-13.802.024-20.703-.005-1.317-.9-2.227-2.232-2.232-7.082-.031-14.166-.029-21.253-.003-1.251.005-2.208.877-2.309 2.068-.085 1.01-.018 2.035-.018 3.197h1.676c6.287 0 12.577-.013 18.864.018.741.003 1.974-.409 1.961.839-.013 1.113-1.172.771-1.9.78-2.965.03-5.933.012-8.902.012-3.84-.003-7.687-.003-11.574-.003ZM21.423 35.56c-.003 5.056 4.185 9.17 9.396 9.229 5.173.059 9.581-4.175 9.587-9.214.008-5.052-4.371-9.265-9.572-9.208-5.234.056-9.409 4.133-9.411 9.193Z"/><path fill="url(#b)" d="M12.154 44.282c-.002-1.68 1.43-3.066 3.123-3.023 1.623.041 3.037 1.436 3.045 3.005.008 1.625-1.483 3.053-3.157 3.017-1.669-.036-3.008-1.371-3.01-3Zm2.796-1.562c-.378.512-.973.986-1.082 1.544-.16.833.49 1.468 1.342 1.29.531-.11 1.214-.71 1.342-1.208.202-.787-.375-1.343-1.602-1.626Z"/><path fill="url(#c)" d="M21.213 4.467c-.484.312-1.029.926-1.438.852-.452-.083-1.039-.772-1.084-1.24-.032-.345.71-1.057 1.113-1.062.468-.005.944.584 1.417.915l-.008.535Z"/><path fill="url(#d)" d="M36.524 35.565c-.986-1.019-1.935-1.914-2.761-2.902-.255-.303-.181-.867-.258-1.309.462.062 1.079-.036 1.358.216 1.127 1.016 2.144 2.148 3.218 3.22.526.528.555 1.006.013 1.546-1.076 1.073-2.086 2.207-3.213 3.226-.281.254-.892.167-1.352.234.064-.44-.027-1.003.22-1.302.827-.99 1.776-1.89 2.775-2.93Z"/><path fill="url(#e)" d="M25.225 35.562c.973.993 1.905 1.847 2.7 2.809.281.342.226.944.324 1.427-.486-.102-1.116-.056-1.438-.337-1.041-.92-1.95-1.98-2.95-2.945-.655-.635-.735-1.178-.036-1.846.972-.932 1.833-1.976 2.843-2.866.367-.321 1.265-.625 1.499-.437.725.57.085 1.114-.37 1.58-.816.833-1.637 1.663-2.572 2.615Z"/><path fill="url(#f)" d="M29.128 39.148c.662-2.603 1.247-5.006 1.92-7.385.07-.255.655-.373 1.003-.556.178.342.566.73.5 1.022a144.273 144.273 0 0 1-1.783 7.068c-.077.275-.646.612-.951.584-.277-.029-.502-.52-.689-.733Z"/><defs><linearGradient id="a" x1="0" x2="42.002" y1="50.002" y2="50.002" gradientUnits="userSpaceOnUse"><stop stop-color="#1723FF"/><stop offset="1" stop-color="#30E35E"/></linearGradient><linearGradient id="b" x1="0" x2="42.002" y1="50.002" y2="50.002" gradientUnits="userSpaceOnUse"><stop stop-color="#1723FF"/><stop offset="1" stop-color="#30E35E"/></linearGradient><linearGradient id="c" x1="0" x2="42.002" y1="50.002" y2="50.002" gradientUnits="userSpaceOnUse"><stop stop-color="#1723FF"/><stop offset="1" stop-color="#30E35E"/></linearGradient><linearGradient id="d" x1="0" x2="42.002" y1="50.002" y2="50.002" gradientUnits="userSpaceOnUse"><stop stop-color="#1723FF"/><stop offset="1" stop-color="#30E35E"/></linearGradient><linearGradient id="e" x1="0" x2="42.002" y1="50.002" y2="50.002" gradientUnits="userSpaceOnUse"><stop stop-color="#1723FF"/><stop offset="1" stop-color="#30E35E"/></linearGradient><linearGradient id="f" x1="0" x2="42.002" y1="50.002" y2="50.002" gradientUnits="userSpaceOnUse"><stop stop-color="#1723FF"/><stop offset="1" stop-color="#30E35E"/></linearGradient></defs></svg>
